X:395
T:Valzer dei Disertori
Z:Jack Campin, http://www.campin.me.uk/
F:Jack Campin's Nine-Note Tunebook
% last edit 04-07-2015
D:https://www.youtube.com/watch?v=e34-0TMEnz8
M:3/4
L:1/4
Q:3/4=54
K:DMin
A3       |A G F|E3-         |E2  F   |\
G3       |G F E|D>    E F/E/|D2  D/E/|
F3       |F E D|A E>    F   |G F E   |D3-|D3:|
D> E F/G/|A3   |G    F  E   |D3      |\
F E  D   |A3   |B/A/ G  d   |A3      |
A c  B   |A B A|G    F  E   |D2  D/E/|\
F E  D   |E F G|E    D  C   |D3-     |D3:|

